X: 68
T:The Swiss Boy
% Nottingham Music Database
S:Thomas Hardy Collection, via PR
M:4/4
L:1/4
K:D
F/2G/2|"D"AF/2G/2 AF/2G/2|Af/2e/2 dF/2A/2|"A"Ge/2d/2 c/2A/2G/2c/2|\
"D"d/2A/2"A"e/2A/2 "D"fF/2G/2|
"D"AF/2G/2 AF/2G/2|"D"Af/2e/2 dF/2A/2|"A"Ge/2d/2 c/2A/2B/2c/2|"D"d2 d::
F/2A/2|"A7"GG/2F/2 GA/2G/2|"D"F/2A/2d/2e/2 fF/2A/2|"A7"GG/2F/2 GA/2G/2|\
"D"F/2A/2d/2e/2 fF/2G/2|
"D"AF/2G/2 AF/2G/2|"D"Af/2e/2 dF/2A/2|"A"Ge/2d/2 c/2A/2B/2c/2|"D"d2 d:|


